Luxtrader/img/icons/quotes/news.svg

<svg id="Слой_1" data-name="Слой 1" xmlns="http://www.w3.org/2000/svg" xmlns:xlink="http://www.w3.org/1999/xlink" viewBox="0 0 17 25"><defs><clipPath id="clip-path"><path class="cls-1" d="M17 25H0V0h17zm-1-1V1H1v23h15"/></clipPath><clipPath id="clip-path-2"><path class="cls-1" d="M0 0h17v25H0z"/></clipPath><clipPath id="clip-path-3"><path class="cls-1" d="M15 6H2V2h13zm0 3H2V7h13zm-7 2H2v-1h6zm0 2H2v-1h6zm0 2H2v-1h6zm0 2H2v-1h6zm7 0H9v-7h6zm0 2H2v-1h13zm-7 2H2v-1h6zm7 0H9v-1h6zm-7 2H2v-1h6zm7 0H9v-1h6zM14 5V3H3v2h11m0 11v-5h-4v5h4"/></clipPath><style>.cls-1{fill:none}</style><image id="image" width="17" height="25" xlink:href="data:image/png;base64,iVBORw0KGgoAAAANSUhEUgAAABEAAAAZCAYAAADXPsWXAAAACXBIWXMAAAsSAAALEgHS3X78AAAAK0lEQVQ4T2PcPSftPwOFgImQAmLAqCGYYNQQTDBqCCYYNQQTjBqCCYaZIQAV+gLuKdCfkwAAAABJRU5ErkJggg=="/></defs><g clip-path="url(#clip-path)"><use xlink:href="#image"/></g><g clip-path="url(#clip-path-3)"><use xlink:href="#image"/></g></svg>

<svg id="Слой_1" data-name="Слой 1" xmlns="http://www.w3.org/2000/svg" xmlns:xlink="http://www.w3.org/1999/xlink" viewBox="0 0 17 25"><defs><style>.cls-1{fill:none;}.cls-2{clip-path:url(#clip-path);}.cls-3{clip-path:url(#clip-path-2);}.cls-4{clip-path:url(#clip-path-3);}</style><clipPath id="clip-path"><path class="cls-1" d="M17,25H0V0H17Zm-1-1V1H1V24H16"/></clipPath><clipPath id="clip-path-2"><rect class="cls-1" width="17" height="25"/></clipPath><clipPath id="clip-path-3"><path class="cls-1" d="M15,6H2V2H15Zm0,3H2V7H15ZM8,11H2V10H8Zm0,2H2V12H8Zm0,2H2V14H8Zm0,2H2V16H8Zm7,0H9V10h6Zm0,2H2V18H15ZM8,21H2V20H8Zm7,0H9V20h6ZM8,23H2V22H8Zm7,0H9V22h6ZM14,5V3H3V5H14m0,11V11H10v5h4"/></clipPath><image id="image" width="17" height="25" xlink:href="data:image/png;base64,iVBORw0KGgoAAAANSUhEUgAAABEAAAAZCAYAAADXPsWXAAAACXBIWXMAAAsSAAALEgHS3X78AAAAK0lEQVQ4T2PcPSftPwOFgImQAmLAqCGYYNQQTDBqCCYYNQQTjBqCCYaZIQAV+gLuKdCfkwAAAABJRU5ErkJggg=="/></defs><g class="cls-2"><g class="cls-3"><use xlink:href="#image"/></g></g><g class="cls-4"><g class="cls-3"><use xlink:href="#image"/></g></g></svg>
